public/assets/logo-txt.svg

<svg height="170" viewBox="0 0 170 170" width="170" xmlns="http://www.w3.org/2000/svg"><g fill="none" fill-rule="evenodd"><path d="m0 0h170v170h-170z" fill="#000"/><g fill="#fff"><path d="m117 117h48v48h-48z"/><g fill-rule="nonzero" transform="translate(5 -14)"><path d="m15.2290909 57v-3.9272727h-5.23636363l2.26909093-6.5454546h14.5745454l2.2254546 6.5454546h-5.2363637v3.9272727h13.2654546v-3.9272727h-3.5781818l-11.1272728-30.9818182h-5.4545454l-11.12727274 30.9818182h-3.62181818v3.9272727zm10.3854546-13.9636364h-12.1745455l6.1090909-17.7163636z"/><path d="m33.164 114v-10.909h-4.364v6.982h-15.709v-13.091h10.909v-3.927h-10.909v-10.037h15.709v6.982h4.364v-10.909h-29.673v3.927h5.236v27.055h-5.236v3.927z"/><path d="m91.164 57v-10.909h-4.364v6.982h-15.709v-13.091h10.909v-3.927h-10.909v-10.037h15.709v6.982h4.364v-10.909h-29.673v3.927h5.236v27.055h-5.236v3.927z"/><path d="m78.4545455 114.436364c4.3345454 0 7.6-1.047273 9.7963636-3.141819 2.1963636-2.094545 3.2945454-5.221818 3.2945454-9.381818v-10.5599997c0-4.2181818-1.090909-7.3890909-3.2727272-9.5127273s-5.44-3.1854545-9.7745455-3.1854545c-4.3345454 0-7.6072727 1.0618181-9.8181818 3.1854545s-3.3163636 5.2945455-3.3163636 9.5127273v10.5599997c0 4.16 1.0981818 7.287273 3.2945454 9.381818 2.1963637 2.094546 5.4618182 3.141819 9.7963637 3.141819zm0-3.927273c-3.1418182 0-5.3818182-.661818-6.72-1.985455-1.3381819-1.323636-2.0072728-3.527272-2.0072728-6.610909v-10.5599997c0-3.1418182.6690909-5.3890909 2.0072728-6.7418182 1.3381818-1.3527273 3.5781818-2.0290909 6.72-2.0290909 3.1418181 0 5.3818181.6763636 6.72 2.0290909 1.3381818 1.3527273 2.0072727 3.6 2.0072727 6.7418182v10.5599997c0 3.083637-.6690909 5.287273-2.0072727 6.610909-1.3381819 1.323637-3.5781819 1.985455-6.72 1.985455z"/><path d="m133.454545 57v-3.9272727h-4.363636v-9.6h8.683636l6.109091 13.5272727h8.334546v-3.9272727h-5.454546l-4.494545-9.9054546c2.414545-.4654545 4.24-1.4327272 5.476364-2.9018182 1.236363-1.4690909 1.854545-3.410909 1.854545-5.8254545v-2.7054545c0-3.1418182-.923636-5.5345455-2.770909-7.1781819-1.847273-1.6436363-4.545455-2.4654545-8.094546-2.4654545h-19.243636v3.9272727h5.236364v27.0545455h-5.236364v3.9272727zm5.236364-17.3672727h-9.6v-13.6145455h9.6c2.501818 0 4.218182.4072727 5.149091 1.2218182s1.396364 2.3127273 1.396364 4.4945455v2.7054545c0 1.9781818-.465455 3.3381818-1.396364 4.08s-2.647273 1.1127273-5.149091 1.1127273z"/></g></g></g></svg>

<svg xmlns="http://www.w3.org/2000/svg" width="170" height="170" viewBox="0 0 170 170">
  <g id="logo-txt" fill="none" fill-rule="evenodd">
    <rect width="170" height="170" fill="#000"/>
    <rect id="Rectangle" width="48" height="48" x="117" y="117" fill="#FFF"/>
    <g id="reg-copy" fill="#FFF" fill-rule="nonzero" transform="translate(5 -14)">
      <path id="A" d="M15.2290909,57 L15.2290909,53.0727273 L9.99272727,53.0727273 L12.2618182,46.5272727 L26.8363636,46.5272727 L29.0618182,53.0727273 L23.8254545,53.0727273 L23.8254545,57 L37.0909091,57 L37.0909091,53.0727273 L33.5127273,53.0727273 L22.3854545,22.0909091 L16.9309091,22.0909091 L5.80363636,53.0727273 L2.18181818,53.0727273 L2.18181818,57 L15.2290909,57 Z M25.6145455,43.0363636 L13.44,43.0363636 L19.5490909,25.32 L25.6145455,43.0363636 Z"/>
      <polygon id="E" points="33.164 114 33.164 103.091 28.8 103.091 28.8 110.073 13.091 110.073 13.091 96.982 24 96.982 24 93.055 13.091 93.055 13.091 83.018 28.8 83.018 28.8 90 33.164 90 33.164 79.091 3.491 79.091 3.491 83.018 8.727 83.018 8.727 110.073 3.491 110.073 3.491 114"/>
      <polygon points="91.164 57 91.164 46.091 86.8 46.091 86.8 53.073 71.091 53.073 71.091 39.982 82 39.982 82 36.055 71.091 36.055 71.091 26.018 86.8 26.018 86.8 33 91.164 33 91.164 22.091 61.491 22.091 61.491 26.018 66.727 26.018 66.727 53.073 61.491 53.073 61.491 57"/>
      <path id="O" d="M78.4545455,114.436364 C82.7890909,114.436364 86.0545455,113.389091 88.2509091,111.294545 C90.4472727,109.2 91.5454545,106.072727 91.5454545,101.912727 L91.5454545,101.912727 L91.5454545,91.3527273 C91.5454545,87.1345455 90.4545455,83.9636364 88.2727273,81.84 C86.0909091,79.7163636 82.8327273,78.6545455 78.4981818,78.6545455 C74.1636364,78.6545455 70.8909091,79.7163636 68.68,81.84 C66.4690909,83.9636364 65.3636364,87.1345455 65.3636364,91.3527273 L65.3636364,91.3527273 L65.3636364,101.912727 C65.3636364,106.072727 66.4618182,109.2 68.6581818,111.294545 C70.8545455,113.389091 74.12,114.436364 78.4545455,114.436364 Z M78.4545455,110.509091 C75.3127273,110.509091 73.0727273,109.847273 71.7345455,108.523636 C70.3963636,107.2 69.7272727,104.996364 69.7272727,101.912727 L69.7272727,101.912727 L69.7272727,91.3527273 C69.7272727,88.2109091 70.3963636,85.9636364 71.7345455,84.6109091 C73.0727273,83.2581818 75.3127273,82.5818182 78.4545455,82.5818182 C81.5963636,82.5818182 83.8363636,83.2581818 85.1745455,84.6109091 C86.5127273,85.9636364 87.1818182,88.2109091 87.1818182,91.3527273 L87.1818182,91.3527273 L87.1818182,101.912727 C87.1818182,104.996364 86.5127273,107.2 85.1745455,108.523636 C83.8363636,109.847273 81.5963636,110.509091 78.4545455,110.509091 Z"/>
      <path id="R" d="M133.454545,57 L133.454545,53.0727273 L129.090909,53.0727273 L129.090909,43.4727273 L137.774545,43.4727273 L143.883636,57 L152.218182,57 L152.218182,53.0727273 L146.763636,53.0727273 L142.269091,43.1672727 C144.683636,42.7018182 146.509091,41.7345455 147.745455,40.2654545 C148.981818,38.7963636 149.6,36.8545455 149.6,34.44 L149.6,34.44 L149.6,31.7345455 C149.6,28.5927273 148.676364,26.2 146.829091,24.5563636 C144.981818,22.9127273 142.283636,22.0909091 138.734545,22.0909091 L138.734545,22.0909091 L119.490909,22.0909091 L119.490909,26.0181818 L124.727273,26.0181818 L124.727273,53.0727273 L119.490909,53.0727273 L119.490909,57 L133.454545,57 Z M138.690909,39.6327273 L129.090909,39.6327273 L129.090909,26.0181818 L138.690909,26.0181818 C141.192727,26.0181818 142.909091,26.4254545 143.84,27.24 C144.770909,28.0545455 145.236364,29.5527273 145.236364,31.7345455 L145.236364,31.7345455 L145.236364,34.44 C145.236364,36.4181818 144.770909,37.7781818 143.84,38.52 C142.909091,39.2618182 141.192727,39.6327273 138.690909,39.6327273 L138.690909,39.6327273 Z"/>
    </g>
  </g>
</svg>
